X: 1
T: Cascade, The
M: 2/4
L: 1/8
R: polka
K: Gmaj
BA/B/ dD | ED AD | BA/B/ dG | BA A2 |
BA/B/ dD | ED AD | BA/B/ dA | BG G2 :|
Bd dB/d/ | eB dG | BA/B/ dG | BA A2 |
Bd dB/d/ | eB dG | BA/B/ dA | BG G2 :|
